resources/haticons/SVG/move-down.svg

<!-- Generated by IcoMoon.io -->
<svg version="1.1" xmlns="http://www.w3.org/2000/svg" width="24" height="24" viewBox="0 0 24 24">
<title>move-down</title>
<path d="M18 16.5v-9h-1.5v9h-3.75l4.5 4.5 4.5-4.5z"></path>
<path d="M7.5 6v4.5h-4.5v-4.5h4.5zM9 4.5h-7.5v7.5h7.5v-7.5z"></path>
<path d="M1.5 15h2.25v1.5h-2.25v-1.5z"></path>
<path d="M4.5 15h2.25v1.5h-2.25v-1.5z"></path>
<path d="M7.5 15h1.5v2.25h-1.5v-2.25z"></path>
<path d="M1.5 20.25h1.5v2.25h-1.5v-2.25z"></path>
<path d="M3.75 21h2.25v1.5h-2.25v-1.5z"></path>
<path d="M6.75 21h2.25v1.5h-2.25v-1.5z"></path>
<path d="M1.5 17.25h1.5v2.25h-1.5v-2.25z"></path>
<path d="M7.5 18h1.5v2.25h-1.5v-2.25z"></path>
</svg>

<svg xmlns="http://www.w3.org/2000/svg" width="24" height="24"><path d="M18 16.5v-9h-1.5v9h-3.75l4.5 4.5 4.5-4.5zM7.5 6v4.5H3V6h4.5zM9 4.5H1.5V12H9V4.5zM1.5 15h2.25v1.5H1.5V15zm3 0h2.25v1.5H4.5V15zm3 0H9v2.25H7.5V15zm-6 5.25H3v2.25H1.5v-2.25zm2.25.75H6v1.5H3.75V21zm3 0H9v1.5H6.75V21zM1.5 17.25H3v2.25H1.5v-2.25zm6 .75H9v2.25H7.5V18z"/></svg>
